file/syfy.svg

<svg clip-rule="evenodd" fill-rule="evenodd" stroke-linejoin="round" stroke-miterlimit="1.41421" viewBox="0 0 560 400" xmlns="http://www.w3.org/2000/svg"><path d="m193.72 107.023c.766.767 1.196 1.196 1.961 1.962v40.815l-23.641 23.648v17.566c-.766.766-1.195 1.195-1.961 1.961h-33.938c-.766-.767-1.195-1.196-1.961-1.961v-17.364l-23.249-23.457v-41.208c.766-.765 1.195-1.195 1.961-1.962h33.937l1.961 1.962v40.815h8.637v-40.816c.766-.765 1.195-1.195 1.961-1.962zm179.318.001h-34.331c-.766.766-1.195 1.197-1.961 1.962v40.816h-8.637v-40.816c-.766-.766-1.195-1.196-1.961-1.962h-33.938c-.766.766-1.196 1.197-1.962 1.962v41.207l23.249 23.457v17.364c.766.766 1.195 1.196 1.961 1.962h33.938c.766-.766 1.196-1.196 1.961-1.962v-17.564l23.643-23.648v-40.815c-.767-.766-1.196-1.197-1.962-1.963zm-309.392 42.776v-8.437h36.684c.767-.766 1.195-1.196 1.961-1.963v-30.415c-.765-.766-1.194-1.195-1.961-1.962h-58.165l-17.165 17.171v23.65c.766.767 1.196 1.196 1.961 1.956zm36.685.001h-36.685v8.437h-36.684c-.766.766-1.196 1.196-1.961 1.962v30.813c.766.766 1.195 1.196 1.961 1.962h58.165l17.165-17.17v-24.042c-.766-.767-1.195-1.197-1.961-1.962zm179.318-42.777h-58.165l-17.165 17.171v66.82c.766.766 1.196 1.196 1.961 1.962h33.938c.766-.766 1.195-1.196 1.961-1.962v-10.694h37.469c.766-.768 1.195-1.197 1.961-1.963v-26.594c-.766-.767-1.195-1.196-1.961-1.962h-37.469v-8.438h37.469c.766-.766 1.195-1.196 1.961-1.962v-30.415c-.765-.766-1.193-1.197-1.96-1.963z" fill-rule="nonzero" transform="matrix(1.02857 0 0 1.02857 74.2857 45.7148)"/></svg>

<?xml version="1.0" encoding="UTF-8" standalone="no"?>
<!DOCTYPE svg PUBLIC "-//W3C//DTD SVG 1.1//EN" "http://www.w3.org/Graphics/SVG/1.1/DTD/svg11.dtd">
<svg width="100%" height="100%" viewBox="0 0 560 400" version="1.1" xmlns="http://www.w3.org/2000/svg" xmlns:xlink="http://www.w3.org/1999/xlink" xml:space="preserve" xmlns:serif="http://www.serif.com/" style="fill-rule:evenodd;clip-rule:evenodd;stroke-linejoin:round;stroke-miterlimit:1.41421;">
    <g id="logo" transform="matrix(1.02857,0,0,1.02857,74.2857,45.7148)">
        <path d="M193.72,107.023C194.486,107.79 194.916,108.219 195.681,108.985L195.681,149.8L172.04,173.448L172.04,191.014C171.274,191.78 170.845,192.209 170.079,192.975L136.141,192.975C135.375,192.208 134.946,191.779 134.18,191.014L134.18,173.65L110.931,150.193L110.931,108.985C111.697,108.22 112.126,107.79 112.892,107.023L146.829,107.023L148.79,108.985L148.79,149.8L157.427,149.8L157.427,108.984C158.193,108.219 158.622,107.789 159.388,107.022L193.72,107.023ZM373.038,107.024L338.707,107.024C337.941,107.79 337.512,108.221 336.746,108.986L336.746,149.802L328.109,149.802L328.109,108.986C327.343,108.22 326.914,107.79 326.148,107.024L292.21,107.024C291.444,107.79 291.014,108.221 290.248,108.986L290.248,150.193L313.497,173.65L313.497,191.014C314.263,191.78 314.692,192.21 315.458,192.976L349.396,192.976C350.162,192.21 350.592,191.78 351.357,191.014L351.357,173.45L375,149.802L375,108.987C374.233,108.221 373.804,107.79 373.038,107.024ZM63.646,149.8L63.646,141.363L100.33,141.363C101.097,140.597 101.525,140.167 102.291,139.4L102.291,108.985C101.526,108.219 101.097,107.79 100.33,107.023L42.165,107.023L25,124.194L25,147.844C25.766,148.611 26.196,149.04 26.961,149.8L63.646,149.8ZM100.331,149.801L63.646,149.801L63.646,158.238L26.962,158.238C26.196,159.004 25.766,159.434 25.001,160.2L25.001,191.013C25.767,191.779 26.196,192.209 26.962,192.975L85.127,192.975L102.292,175.805L102.292,151.763C101.526,150.996 101.097,150.566 100.331,149.801ZM279.649,107.024L221.484,107.024L204.319,124.195L204.319,191.015C205.085,191.781 205.515,192.211 206.28,192.977L240.218,192.977C240.984,192.211 241.413,191.781 242.179,191.015L242.179,180.321L279.648,180.321C280.414,179.553 280.843,179.124 281.609,178.358L281.609,151.764C280.843,150.997 280.414,150.568 279.648,149.802L242.179,149.802L242.179,141.364L279.648,141.364C280.414,140.598 280.843,140.168 281.609,139.402L281.609,108.987C280.844,108.221 280.416,107.79 279.649,107.024Z" style="fill-rule:nonzero;"/>
    </g>
</svg>
